X:159
T:Aunt Terrys Angels
R:double jig
C:2014 L.E. McCullough 
M:6/8
L:1/8
K:Gmajor
z3 zBd|: ~e3 edB | ~A3 BGE | ~G3 DGA | Bdg Bdg| 
~e3 edB | ~A3 BGE | ~B3 dBA |1AGF G2d :|2AGF G2D|| 
|: ~E3 ~G3 | ~B3 B^cd | ege edB |1(3efge edB | ~E3 ~G3 | 
BAG GAB | ~A3 AGF | AGF BAG :|2~e3 def | 
~g3 ~a3 | gfe def | gdB gdB | ~A3 ABd|| 


